packages/icons/svg/Outline/npm.svg

<svg fill="none" height="24" viewBox="0 0 24 24" width="24" xmlns="http://www.w3.org/2000/svg"><path clip-rule="evenodd" d="m12 19h4v-10h-4zm-5.99998-13.99993c-.551 0-1 .449-1 1v12.00003c0 .551.449 1 1 1h11.99998c.551 0 1-.449 1-1v-12.00003c0-.551-.449-1-1-1zm11.99998 15.99993h-12c-1.654 0-3-1.346-3-3v-12c0-1.654 1.346-3 3-3h12c1.654 0 3 1.346 3 3v12c0 1.654-1.346 3-3 3z" fill="#6b7280" fill-rule="evenodd"/></svg>

<svg width="24" height="24" viewBox="0 0 24 24" fill="none" xmlns="http://www.w3.org/2000/svg">
<g id="Icon/Outline/npm">
<path id="Mask" fill-rule="evenodd" clip-rule="evenodd" d="M12 19H16V9H12V19ZM6 5C5.449 5 5 5.449 5 6V18C5 18.551 5.449 19 6 19H18C18.551 19 19 18.551 19 18V6C19 5.449 18.551 5 18 5H6ZM18 21H6C4.346 21 3 19.654 3 18V6C3 4.346 4.346 3 6 3H18C19.654 3 21 4.346 21 6V18C21 19.654 19.654 21 18 21Z" fill="#000000"/>
</g>
</svg>
